flaticon/interaction/user-14.svg

<svg xmlns="http://www.w3.org/2000/svg" width="32" height="32" viewBox="0 0 24 24">
    <path d="M 13.449219 24 L 23.378906 24 L 23.378906 14.070312 L 13.449219 14.070312 Z M 14.277344 14.898438 L 18 14.898438 L 18 20.105469 L 16.222656 18.328125 L 15.636719 18.914062 L 18.414062 21.6875 L 21.1875 18.914062 L 20.605469 18.328125 L 18.828125 20.105469 L 18.828125 14.898438 L 22.550781 14.898438 L 22.550781 23.171875 L 14.277344 23.171875 Z M 14.277344 14.898438"/>
    <path d="M 12 21.929688 C 11.953125 21.929688 11.902344 21.929688 11.855469 21.925781 C 11.65625 21.925781 11.457031 21.914062 11.261719 21.902344 C 9.070312 21.75 7.0625 20.925781 5.4375 19.632812 C 5.597656 19.484375 5.769531 19.359375 5.949219 19.265625 L 9.742188 17.640625 C 10.050781 17.488281 10.234375 17.148438 10.417969 16.785156 C 10.53125 16.558594 10.515625 16.289062 10.382812 16.074219 C 10.246094 15.855469 10.011719 15.722656 9.757812 15.722656 L 7.128906 15.726562 C 7.121094 15.726562 6.222656 15.632812 5.546875 15.34375 C 5.484375 15.316406 5.449219 15.28125 5.433594 15.230469 C 5.417969 15.171875 5.433594 15.105469 5.476562 15.042969 C 6.386719 13.722656 7.925781 11.101562 7.980469 8.351562 C 7.984375 8.195312 8.105469 4.507812 11.839844 4.476562 C 14.0625 4.496094 15.109375 5.796875 15.601562 6.886719 C 15.84375 7.429688 15.988281 8.078125 16.042969 8.863281 C 16.09375 9.640625 16.246094 10.457031 16.496094 11.292969 C 16.5625 11.511719 16.792969 11.636719 17.011719 11.570312 C 17.230469 11.507812 17.355469 11.277344 17.289062 11.058594 C 17.058594 10.28125 16.914062 9.523438 16.867188 8.808594 C 16.808594 7.921875 16.640625 7.179688 16.355469 6.546875 C 15.765625 5.234375 14.507812 3.671875 11.839844 3.648438 C 7.304688 3.6875 7.152344 8.285156 7.152344 8.332031 C 7.101562 10.867188 5.65625 13.328125 4.796875 14.570312 C 4.609375 14.839844 4.554688 15.164062 4.640625 15.457031 C 4.722656 15.746094 4.933594 15.980469 5.21875 16.105469 C 6.011719 16.445312 7.007812 16.546875 7.089844 16.550781 L 9.609375 16.550781 C 9.539062 16.6875 9.445312 16.855469 9.394531 16.886719 L 5.601562 18.515625 C 5.308594 18.664062 5.046875 18.859375 4.8125 19.09375 C 2.746094 17.164062 1.449219 14.421875 1.449219 11.378906 C 1.449219 5.5625 6.183594 0.828125 12 0.828125 C 17.816406 0.828125 22.550781 5.5625 22.550781 11.378906 C 22.550781 11.609375 22.738281 11.792969 22.964844 11.792969 C 23.195312 11.792969 23.378906 11.609375 23.378906 11.378906 C 23.378906 5.105469 18.273438 0 12 0 C 5.726562 0 0.621094 5.105469 0.621094 11.378906 C 0.621094 14.679688 2.035156 17.65625 4.285156 19.734375 L 4.257812 19.777344 L 4.546875 20.027344 C 6.164062 21.410156 8.128906 22.296875 10.210938 22.617188 C 10.355469 22.640625 10.503906 22.660156 10.65625 22.675781 C 10.816406 22.695312 10.976562 22.710938 11.140625 22.722656 C 11.382812 22.742188 11.621094 22.753906 11.867188 22.753906 C 11.890625 22.753906 11.917969 22.757812 11.941406 22.757812 C 11.945312 22.757812 11.945312 22.757812 11.949219 22.757812 C 11.964844 22.757812 11.984375 22.757812 12 22.757812 C 12.226562 22.757812 12.414062 22.574219 12.414062 22.34375 C 12.414062 22.117188 12.226562 21.929688 12 21.929688 Z M 12 21.929688"/>
</svg>

<svg xmlns="http://www.w3.org/2000/svg" width="32" height="32" viewBox="0 0 24 24">
    <path d="M13.45 24h9.929v-9.93h-9.93zm.827-9.102H18v5.207l-1.777-1.777-.586.586 2.777 2.773 2.773-2.773-.582-.586-1.777 1.777v-5.207h3.723v8.274h-8.274zm0 0"/>
    <path d="M12 21.93c-.047 0-.098 0-.145-.004a10.504 10.504 0 0 1-6.418-2.293c.16-.149.333-.274.512-.367l3.793-1.625c.309-.153.492-.493.676-.856a.737.737 0 0 0-.66-1.063l-2.63.005c-.007 0-.905-.094-1.581-.383-.063-.028-.098-.063-.113-.114a.229.229 0 0 1 .043-.187c.91-1.32 2.449-3.941 2.503-6.691.004-.157.125-3.844 3.86-3.875 2.223.02 3.27 1.32 3.762 2.41.242.543.386 1.191.441 1.976.05.778.203 1.594.453 2.43a.414.414 0 0 0 .793-.234 10.362 10.362 0 0 1-.422-2.25c-.058-.887-.226-1.63-.512-2.262-.59-1.313-1.847-2.875-4.515-2.899-4.535.04-4.688 4.637-4.688 4.684-.05 2.535-1.496 4.996-2.355 6.238a1.04 1.04 0 0 0-.156.887c.082.29.293.523.578.648.793.34 1.789.442 1.87.446h2.52c-.07.137-.164.304-.214.336l-3.793 1.629a3.088 3.088 0 0 0-.79.578 10.53 10.53 0 0 1-3.363-7.715C1.45 5.563 6.184.829 12 .829s10.55 4.734 10.55 10.55a.414.414 0 0 0 .829 0C23.379 5.105 18.273 0 12 0S.621 5.105.621 11.379c0 3.3 1.414 6.277 3.664 8.355l-.027.043.289.25a11.368 11.368 0 0 0 6.11 2.649c.16.02.32.035.484.047.242.02.48.03.726.03.024 0 .051.005.074.005H12a.414.414 0 0 0 0-.828zm0 0"/>
</svg>
